svgs/light/file-minus.svg

<svg xmlns="http://www.w3.org/2000/svg" viewBox="0 0 384 512"><!-- Font Awesome Pro 6.0.0-alpha2 by @fontawesome - https://fontawesome.com License - https://fontawesome.com/license (Commercial License) --><path d="M112 320.002C103.16 320.002 96 327.162 96 336C96 344.834 103.156 351.998 112 351.998H272C280.84 351.998 288 344.838 288 336S280.84 320.002 272 320.002H112ZM365.258 125.254L258.746 18.746C246.742 6.742 230.465 0 213.492 0H64C28.656 0 0 28.654 0 64V448C0 483.346 28.656 512 64 512H320C355.348 512 384 483.346 384 448V170.51C384 153.535 377.258 137.258 365.258 125.254ZM224 34.076C228.477 35.643 232.664 37.922 236.117 41.375L342.625 147.879C346.078 151.332 348.359 155.523 349.922 160H240C231.188 160 224 152.828 224 144V34.076ZM352 448C352 465.645 337.645 480 320 480H64C46.355 480 32 465.645 32 448V64C32 46.355 46.355 32 64 32H192V144C192 170.469 213.531 192 240 192H352V448Z"/></svg>

<svg xmlns="http://www.w3.org/2000/svg" viewBox="0 0 384 512"><!--! Font Awesome Pro 6.0.0-alpha3 by @fontawesome - https://fontawesome.com License - https://fontawesome.com/license (Commercial License) --><path d="M112 320c-8.84 0-16 7.16-16 15.1c0 8.834 7.156 15.1 16 15.1h160c8.84 0 16-7.16 16-15.1s-7.16-15.1-16-15.1H112zM365.3 125.3l-106.5-106.5C246.7 6.742 230.5 0 213.5 0H64C28.66 0 0 28.65 0 64l.0065 384c0 35.35 28.66 64 64 64H320c35.35 0 64-28.65 64-64V170.5C384 153.5 377.3 137.3 365.3 125.3zM224 34.08c4.477 1.566 8.664 3.846 12.12 7.299l106.5 106.5C346.1 151.3 348.4 155.5 349.9 160H240C231.2 160 224 152.8 224 144V34.08zM352 448c0 17.64-14.36 32-32 32H64c-17.64 0-32-14.36-32-32V64c0-17.64 14.36-32 32-32h128v112C192 170.5 213.5 192 240 192H352V448z"/></svg>
